X:1
T:When First to this Country
M:4/4
L:1/4
K:E
 E| E- GF/2-E/2 E| F F2F/2-E/2| C- E E F| E4| z2 G- B| c4-| c2 B G|\
 F2 F E| C E E F| E4-| E2 z||

